X: 64
T:Minuet. TBe.064
M:3/4
L:1/4
Q:60
S:Thomas Bennet MS,1718, VWML
R:minuet
O:England
N:See notes to 063, Eccho Minuet .. E - Funny greek E before the note...
H:Before 1718
Z:vmp.C. Graebe..
K:D major
f/g/ ad | "="c2 d | (e/f/)  "="f2 | e/d/e/f/e/g/ |\
f/g/ ad |  "="c2d | (e/f/)  "="f2 | e3 ||!
 f/g/ "E"aa | aB2 | e/f/"E"gg | gA2 |\
 f/g/"1"aa | a>gf/e/ | f/g/  "="e2 | d3 ||
